packages/icons/src/components/Icon/assets/default-outline/star.svg

<svg width="20" height="20" viewBox="0 0 20 20" fill="none" xmlns="http://www.w3.org/2000/svg">
<path fill-rule="evenodd" clip-rule="evenodd" d="M9.14636 2.98632C9.5547 2.00456 10.9455 2.00456 11.3538 2.98632L12.9657 6.86178L17.1496 7.19721C18.2095 7.28218 18.6393 8.60488 17.8317 9.29662L14.6441 12.0272L15.6179 16.11C15.8647 17.1442 14.7395 17.9617 13.8321 17.4075L10.2501 15.2196L6.66809 17.4075C5.76067 17.9617 4.63551 17.1442 4.88223 16.11L5.85612 12.0272L2.66844 9.29662C1.86091 8.60488 2.29068 7.28218 3.35058 7.19721L7.53446 6.86178L9.14636 2.98632ZM10.2501 4.23859L8.84799 7.60962C8.67585 8.02351 8.28662 8.3063 7.83979 8.34212L4.20048 8.63388L6.97325 11.0091C7.31369 11.3007 7.46236 11.7582 7.35835 12.1943L6.51122 15.7456L9.62698 13.8425C10.0095 13.6089 10.4906 13.6089 10.8732 13.8425L13.9889 15.7456L13.1418 12.1943C13.0378 11.7582 13.1865 11.3007 13.5269 11.0091L16.2997 8.63388L12.6604 8.34212C12.2136 8.3063 11.8243 8.0235 11.6522 7.60962L10.2501 4.23859ZM3.47101 8.69236L3.47044 8.69241L3.4461 8.38877L3.47044 8.69241C3.47063 8.69239 3.47082 8.69238 3.47101 8.69236Z" />
</svg>

<svg xmlns="http://www.w3.org/2000/svg" width="20" height="20" fill="none" viewBox="0 0 20 20">
    <path d="M9.146 2.986c.409-.981 1.8-.981 2.208 0l1.612 3.876 4.184.335c1.06.085 1.49 1.408.682 2.1l-3.188 2.73.974 4.083c.247 1.034-.879 1.852-1.786 1.297L10.25 15.22l-3.582 2.187c-.907.555-2.032-.263-1.786-1.297l.974-4.083-3.188-2.73c-.807-.692-.377-2.015.683-2.1l4.183-.335zM10.25 4.24 8.848 7.61a1.2 1.2 0 0 1-1.008.733l-3.64.292 2.773 2.375c.34.292.49.75.385 1.185l-.847 3.552 3.116-1.904a1.2 1.2 0 0 1 1.246 0l3.116 1.904-.847-3.552a1.2 1.2 0 0 1 .385-1.185L16.3 8.634l-3.64-.292a1.2 1.2 0 0 1-1.008-.732zM3.471 8.692l-.025-.303z" clip-rule="evenodd"/>
</svg>
